!!!COM:	Bach, Johann Sebastian
!!!OMV:	Verleih uns Frieden gn&auml;diglich
!!!OTL:	Verleih uns Frieden gn&auml;diglich
**kern	**fb	**kern	**kern	**kern	**kern
*part5	*part5	*part4	*part3	*part2	*part1
*staff5	*	*staff4	*staff3	*staff2	*staff1
*I"Continuo	*	*I"Voice	*I"Voice	*I"Voice	*I"Voice
*I'Cont.	*	*I'V	*I'V	*I'V	*I'V
*clefF4	*	*clefF4	*clefGv2	*clefG2	*clefG2
*Trd0c0	*	*	*	*	*
*k[]	*	*k[]	*k[]	*k[]	*k[]
*M4/4	*	*M4/4	*M4/4	*M4/4	*M4/4
4A	.	4A	4c	4e	4a
=2	=2	=2	=2	=2	=2
8DL	7 5	8DL	4c	8fL	4a
8EJ	.	8EJ	.	8eJ	.
4F	6 4	4F	8BL	4d	4a
.	3	.	8AJ	.	.
8EL	#	8EL	4B	4e	4g#X
8D	.	8D	.	.	.
8C	6	8C	8cL	8eL	8aL
8BBJ	#6\	8BBJ	8dJ	8g#XJ	8bJ
=3	=3	=3	=3	=3	=3
4AA	.	4AA	4e	4a	4cc
4EE	#	4E	8eL	4g#X	4b
.	.	.	8dJ	.	.
4AA;	.	4AA;	4c;	4e;	4a;
4A	.	4A	4c	4e	4cc
=4	=4	=4	=4	=4	=4
8GL	.	8GL	4B	4gn	4dd
8F	.	8F	.	.	.
8E	7 5	8E	4B	4g	4dd
8DJ	.	8DJ	.	.	.
8CL	.	8CL	4c	4g	4ee
8D	.	8D	.	.	.
8E	6	8E	4c	4g	4cc
8CJ	.	8CJ	.	.	.
=5	=5	=5	=5	=5	=5
2F	6 5	2F	4c	2a	2dd
.	4	.	8BL	.	.
.	3	.	8AJ	.	.
4E;	#	4E;	4B;	4g#X;	4ee;
4E	.	4E	4B	4g#	4ee
=6	=6	=6	=6	=6	=6
8AL	.	8AL	4c	4a	4ee
8GJ	.	8GJ	.	.	.
4F#X	6	4F#X	8dL	4a	4dd
.	5	.	8cJ	.	.
4G#X	6	4G#X	4B	4e	8eeL
.	5	.	.	.	8ddJ
8AL	.	8AL	8cL	4e	4cc
8GnJ	.	8GnJ	8BJ	.	.
=7	=7	=7	=7	=7	=7
!!linebreak:original
8FL	6	8FL	4A	4a	8ddL
8DJ	7 5	8DJ	.	.	8ccJ
4E	#	4E	4e	8aL	4b
.	.	.	.	8g#XJ	.
4AA;	.	4AA;	4c;	4e;	4a;
4F	.	4F	8cL	4f	8aL
.	.	.	8dJ	.	8bJ
=8	=8	=8	=8	=8	=8
4E	6	4E	8eL	8gL	4cc
.	.	.	8dJ	8fJ	.
8AL	.	8AL	8cL	4e	4cc
8GJ	.	8GJ	8BJ	.	.
4F	6	4F	8AL	4a	4dd
.	.	.	8B	.	.
8EL	6	8EL	8c	8gL	8ccL
8DJ	6	8DJ	8dJ	8fJ	8bJ
=9	=9	=9	=9	=9	=9
4C#X	6 5	4C#X	4e	8eL	2a
.	.	.	.	8gJ	.
4D	.	4D	16dLL	16fLL	.
.	.	.	16c#XJ	16eJ	.
.	.	.	8dJ	8fJ	.
4AA;	#	4AA;	4c#;	4e;	4a;
4BB	6	4BB	4d	4g	4dd
=10	=10	=10	=10	=10	=10
4C	.	4C	8cL	4g	4ee
.	.	.	8BJ	.	.
8DL	.	8DL	4A	4f	4dd
8EJ	.	8EJ	.	.	.
4F	5 3	4F	4A	8cL	8aL
.	6 4	.	.	8dJ	8bJ
8EL	6	8EL	8GL	4e	4cc
8F#XJ	.	8F#XJ	8AJ	.	.
=11	=11	=11	=11	=11	=11
8G#XL	6 5	8G#XL	8BL	8e	8bL
8AJ	.	8AJ	8cJ	4a	8aJ
4E	4	4E	4d	.	4b
.	#	.	.	8g#X	.
4AA;	.	4AA;	4c;	4e;	4a;
4A	.	4A	4c	4e	4a
=12	=12	=12	=12	=12	=12
!!pagebreak:original
4D#X	6 5	4D#X	4B	4f#X	4a
4E	.	4E	4B	4e	4gn
4A	5	4A	4A	8eL	4cc
.	#6\	.	.	8f#J	.
4G	.	4Gn	4B	4g	4dd
=13	=13	=13	=13	=13	=13
8cL	.	8cL	8cL	4g	8eeL
8B	.	8B	8dJ	.	8ddJ
8A	.	8A	4e	4a	4cc
8GJ	.	8GJ	.	.	.
4F	6 5	4F	8A	4a	4dd
.	.	.	16BLL	.	.
.	.	.	16cJJ	.	.
4G	.	4G	4B	4g	4dd
=14	=14	=14	=14	=14	=14
2C;	.	2C;	2c;	2g;	2ee;
2A	6	2A	2c	2f	2ff
=15	=15	=15	=15	=15	=15
4G	.	4G	4c	4g	4ee
4F	6 5	4F	4c	4a	4dd
4G	4	4G	4c	8gL	4.dd
.	.	.	.	8eJ	.
4GG	3	4GG	4B	4f	.
.	.	.	.	.	8cc
=16	=16	=16	=16	=16	=16
2.C;	.	2.C;	2.G;	2.e;	2.cc;
4c	5	4c	4c	8gL	4ee
.	6	.	.	8aJ	.
=17	=17	=17	=17	=17	=17
4G#X	6 5	4G#X	4B	4b	4ee
8AL	.	8AL	4e	4a	4cc
8GnJ	.	8GnJ	.	.	.
8FL	6	8FL	4A	4a	8ddL
8EJ	#6\	8EJ	.	.	8eeJ
4D	.	4D	4d	4a	4ff
=18	=18	=18	=18	=18	=18
2AA;	#	2AA;	2c#X;	2a;	2ee;
4BB	6	4BB	4d	4g	4gg
4C	8	4C	8cnL	4g	4ee
.	-r7	.	8B-XJ	.	.
=19	=19	=19	=19	=19	=19
!!linebreak:original
[1C	6 4	4C	4A	8cL	4ff
.	.	.	.	8d	.
.	5 3	4C	4G	8e	8eeL
.	4 2	.	.	8fJ	8ddJ
.	8	4C	8c	4g	4ee
.	.	.	4B-X	.	.
.	-r7	4C	.	4g	4ee
.	.	.	8A	.	.
=20	=20	=20	=20	=20	=20
4C]	6 4	4C	8AL	8aL	4ff
.	.	.	8BnJ	8g	.
8CL	5 3	8CL	2c	8g	4ee
8DJ	.	8DJ	.	8fJ	.
8EL	6	8EL	.	8eL	8ggL
8D	.	8D	.	8fJ	8ffJ
8E	6	8E	[4c	4g	4ee
8FJ	.	8FJ	.	.	.
=21	=21	=21	=21	=21	=21
4G	4	4G	8cL]	4.g	2dd
.	.	.	8AJ	.	.
4GG	3	4GG	4B	.	.
.	.	.	.	8f	.
2C;	.	2C;	2G;	2e;	2cc;
=22	=22	=22	=22	=22	=22
8cL	.	8cL	4c	8gL	4ee
8B	.	8B	.	8aJ	.
8A	5 2	8A	4B	4b	4ee
8G#XJ	.	8G#XJ	.	.	.
8AL	.	8AL	8cL	4e	4cc
8Gn	.	8Gn	8BJ	.	.
8F	6	8F	4A	4d	4dd
8EJ	7 #	8EJ	.	.	.
=23	=23	=23	=23	=23	=23
8FL	5	8FL	4.f	4.a	4cc
8E	.	8E	.	.	.
8D	6 5	8D	.	.	4b
8EJ	#	8EJ	16eLL	8g#X	.
.	.	.	16dJJ	.	.
2F;	5	2F;	2c;	2a;	2a;
=24	=24	=24	=24	=24	=24
!!pagebreak:original
4C	.	4C	8cL	8eL	4gn
.	.	.	8BJ	8dJ	.
4F	5 3	4F	4A	8cL	8aL
.	6 4	.	.	8dJ	8bJ
4E	6	4E	8GL	8eL	4cc
.	.	.	8FJ	8dJ	.
8DL	5 4 2	8DL	4G	4e	4a
8C#XJ	.	8C#XJ	.	.	.
=25	=25	=25	=25	=25	=25
2.D;	.	2.D;	2.F;	2.d;	2.a;
[4E	.	[4E	4G	4B	4g
=26	=26	=26	=26	=26	=26
4E]	6 4 2	4E]	4.F	8c	4a
.	.	.	.	16dLL	.
.	.	.	.	16eJJ	.
4D	6	4D	.	4f	4b
.	.	.	16ELL	.	.
.	.	.	16FJJ	.	.
8EL	6	8EL	8GL	4.e	4cc
8FJ	.	8FJ	8AJ	.	.
[4G	6	[4G	4B	.	4b
.	.	.	.	16fLL	.
.	.	.	.	16gJJ	.
=27	=27	=27	=27	=27	=27
8G]	6 #4| 2	8G]	8c#X	4.a	[2a
16FLL	.	16FLL	16dLL	.	.
16EJJ	.	16EJJ	16eJJ	.	.
8FL	6	8FL	8AL	.	.
8DJ	.	8DJ	8dJ	16gLL	.
.	.	.	.	16fJJ	.
2E	6 4	2E	8cn	2e	4a]
.	.	.	16BLL	.	.
.	.	.	16AJJ	.	.
.	5 #	.	4B	.	4g#X
=28	=28	=28	=28	=28	=28
2.AA;	.	2.AA;	2.c#X;	2.e;	2.a;
=||	=||	=||	=||	=||	=||
*-	*-	*-	*-	*-	*-
!!!system-decoration: s1,s2,s3,s4,s5
